src/assets/icons/error.svg

<svg width="24" height="24" viewBox="0 0 17.5001 17.5" fill="none" xmlns="http://www.w3.org/2000/svg">
<path d="M8.75005 0C9.11758 9.66624e-06 9.47833 0.101848 9.79107 0.294922C10.1037 0.488001 10.3559 0.765212 10.5206 1.09375H10.5215L17.2911 14.6338L17.3438 14.748C17.4584 15.0192 17.5114 15.3132 17.4981 15.6084C17.4829 15.9455 17.3815 16.2734 17.2042 16.5605C17.0268 16.8475 16.7791 17.0846 16.4844 17.249C16.1898 17.4134 15.858 17.4998 15.5206 17.5H1.97954C1.64215 17.4998 1.31031 17.4134 1.01567 17.249C0.721035 17.0846 0.473339 16.8475 0.295948 16.5605C0.118569 16.2734 0.0172113 15.9455 0.00200306 15.6084C-0.0131824 15.2712 0.0581815 14.9357 0.209034 14.6338L6.97857 1.09375H6.97954C7.14421 0.765209 7.39634 0.487998 7.70903 0.294922C8.02177 0.101854 8.38252 1.13299e-07 8.75005 0ZM8.75005 1.5C8.66084 1.5 8.57303 1.52443 8.49712 1.57129C8.42123 1.61816 8.36033 1.68588 8.32036 1.76562L1.55083 15.3047C1.51433 15.3779 1.49637 15.4593 1.50005 15.541C1.50377 15.6228 1.52932 15.7019 1.57232 15.7715C1.61534 15.8411 1.67468 15.8995 1.74614 15.9395C1.81764 15.9793 1.89865 15.9999 1.98052 16H15.5196L15.5801 15.9961C15.6408 15.9883 15.7002 15.9695 15.754 15.9395C15.8254 15.8995 15.8848 15.8411 15.9278 15.7715C15.9708 15.7019 15.9963 15.6228 16 15.541C16.0037 15.4593 15.9858 15.3779 15.9493 15.3047L9.17974 1.76562L9.14653 1.70801C9.10885 1.65325 9.05995 1.60647 9.00298 1.57129C8.92707 1.52443 8.83926 1.50001 8.75005 1.5ZM8.75005 11.75C9.01525 11.75 9.26955 11.8554 9.45708 12.043C9.64462 12.2305 9.75005 12.4848 9.75005 12.75C9.75005 13.0152 9.64462 13.2695 9.45708 13.457C9.26955 13.6446 9.01525 13.75 8.75005 13.75C8.48485 13.75 8.23054 13.6446 8.04302 13.457C7.8555 13.2695 7.75005 13.0152 7.75005 12.75C7.75005 12.4848 7.8555 12.2305 8.04302 12.043C8.23054 11.8554 8.48485 11.75 8.75005 11.75ZM8.75005 6C9.16426 6 9.50005 6.33579 9.50005 6.75V9.98145C9.49983 10.3955 9.16413 10.7314 8.75005 10.7314C8.33597 10.7314 8.00027 10.3955 8.00005 9.98145V6.75C8.00005 6.33579 8.33584 6 8.75005 6Z" fill="#314158"/>
</svg>

<svg fill="none" viewBox="0 0 17.5 17.5"><path fill="currentColor" d="M8.75 0a1.98 1.98 0 0 1 1.77 1.094h.002l6.77 13.54.052.114A1.982 1.982 0 0 1 15.52 17.5H1.98a1.98 1.98 0 0 1-1.771-2.866l6.77-13.54A1.98 1.98 0 0 1 8.75 0m0 1.5a.48.48 0 0 0-.43.266L1.55 15.305a.48.48 0 0 0 .196.635q.11.06.235.06H15.52l.06-.004a.482.482 0 0 0 .37-.691L9.18 1.765l-.033-.057A.48.48 0 0 0 8.75 1.5m0 10.25a1 1 0 1 1 0 2 1 1 0 0 1 0-2m0-5.75a.75.75 0 0 1 .75.75v3.231a.75.75 0 0 1-1.5 0V6.75A.75.75 0 0 1 8.75 6"/></svg>
